icons/agriculture_worker_fill.svg

<svg width="48" height="48" viewBox="0 0 48 48" fill="none" xmlns="http://www.w3.org/2000/svg">
<path d="M30 8C30 6.89543 27.0125 6 24 6C20.9875 6 18 6.89543 18 8L17.1476 10.8414C17.5012 10.8954 17.8895 10.9524 18.301 11.0095C20.0968 11.2582 22.2905 11.5 24 11.5C25.7095 11.5 27.9032 11.2582 29.699 11.0095C30.1105 10.9524 30.4988 10.8954 30.8524 10.8414L30 8Z" fill="black"/>
<path d="M31.5866 12.7514C31.1185 12.8252 30.5701 12.9079 29.9734 12.9905C28.16 13.2418 25.8537 13.5 24 13.5C22.1463 13.5 19.84 13.2418 18.0266 12.9905C17.4299 12.9079 16.8815 12.8252 16.4134 12.7514C13.1348 13.4776 11 14.6621 11 16C11 18.2091 16.8203 20 24 20C31.1797 20 37 18.2091 37 16C37 14.6621 34.8652 13.4776 31.5866 12.7514Z" fill="black"/>
<path d="M16.0015 19.1535C16.0833 23.5009 19.633 27 24 27C28.367 27 31.9168 23.5009 31.9986 19.1535C31.3681 19.3051 30.6909 19.4392 29.9748 19.5535C29.6955 22.6077 27.1271 25 24 25C20.8729 25 18.3045 22.6077 18.0252 19.5535C17.3091 19.4392 16.632 19.3051 16.0015 19.1535Z" fill="black"/>
<path fill-rule="evenodd" clip-rule="evenodd" d="M17.1974 35C16.4875 36.2271 15.3556 37.1795 14.0001 37.6586V41C14.0001 41.3506 13.9399 41.6872 13.8293 42H42.0001V36C42.0001 30.5833 30.0076 29 24.0001 29C22.3329 29 20.2048 29.1219 18.0001 29.4139L18 35H17.1974ZM24.0001 36C22.4153 36 21.0355 35.795 20 35.5706V31.2C21.467 31.0616 22.8475 31 24.0001 31C25.6661 31 27.8087 31.1287 30 31.4321V35C29.9869 35.0052 27.4909 36 24.0001 36ZM34.7026 32.3916C34.1515 32.2338 33.5811 32.0914 33 31.9633V35H35.0001C35.5523 35 36.0001 35.4477 36.0001 36V40H40.0001V36C40.0001 35.4942 39.7524 34.9085 38.8353 34.2233C37.8956 33.5212 36.4723 32.898 34.7026 32.3916Z" fill="black"/>
<path d="M8 25C8 24.4477 7.55228 24 7 24C6.44772 24 6 24.4477 6 25V32C6 34.2091 7.79086 36 10 36V41C10 41.5523 10.4477 42 11 42C11.5523 42 12 41.5523 12 41V36C14.2091 36 16 34.2091 16 32V25C16 24.4477 15.5523 24 15 24C14.4477 24 14 24.4477 14 25V32C14 33.1046 13.1046 34 12 34V25C12 24.4477 11.5523 24 11 24C10.4477 24 10 24.4477 10 25V34C8.89543 34 8 33.1046 8 32V25Z" fill="black"/>
</svg>

<svg
  xmlns="http://www.w3.org/2000/svg"
  width="24"
  height="24"
  viewBox="0 0 24 24"
  fill="none"
  stroke="currentColor"
  stroke-width="2"
  stroke-linecap="round"
  stroke-linejoin="round"
>
  <path d="M30 8c0-1.105-2.988-2-6-2s-6 .895-6 2l-.852 2.841c.353.054.742.111 1.153.168 1.796.25 3.99.491 5.699.491 1.71 0 3.903-.242 5.699-.49.411-.058.8-.115 1.153-.169z" />
  <path d="M31.587 12.751c-.468.074-1.017.157-1.614.24-1.813.25-4.12.509-5.973.509-1.854 0-4.16-.258-5.973-.51a87 87 0 0 1-1.614-.239C13.135 13.478 11 14.662 11 16c0 2.21 5.82 4 13 4s13-1.79 13-4c0-1.338-2.135-2.522-5.413-3.249" />
  <path d="M16.002 19.154a8 8 0 0 0 15.997 0 27 27 0 0 1-2.024.4 6 6 0 0 1-11.95 0 27 27 0 0 1-2.023-.4" />
  <path
    fill-rule="evenodd"
    d="M17.197 35A6.02 6.02 0 0 1 14 37.659V41c0 .35-.06.687-.17 1H42v-6c0-5.417-11.992-7-18-7a47 47 0 0 0-6 .414V35zM24 36a19 19 0 0 1-4-.43V31.2c1.467-.138 2.848-.2 4-.2 1.666 0 3.809.129 6 .432V35c-.013.005-2.51 1-6 1m10.703-3.608q-.83-.236-1.703-.429V35h2a1 1 0 0 1 1 1v4h4v-4c0-.506-.248-1.092-1.165-1.777-.94-.702-2.363-1.325-4.132-1.831"
    clip-rule="evenodd"
  />
  <path d="M8 25a1 1 0 1 0-2 0v7a4 4 0 0 0 4 4v5a1 1 0 1 0 2 0v-5a4 4 0 0 0 4-4v-7a1 1 0 1 0-2 0v7a2 2 0 0 1-2 2v-9a1 1 0 1 0-2 0v9a2 2 0 0 1-2-2z" />
</svg>
